X: 56
T:Plough and the Stars, The
M:C|
L:1/8
R:Reel
K:G
BA[|:GEDE GABd|g2bg aged|Bd~d2 ed~d2|egdB AcBA|!
GEDE GABd|g2bg aged|Bd~d2 gedB|1AGAB G2BA:|2AGAB GABd|!
|:g2ge a2af|g2bg aged|Bd~d2 ed~d2|egdB  AcBA|!
GEDE GABd|g2bg aged|Bd~d2 gedB|1AGAB GABd:|2AGAB G2BA|]!
